public/formular-icons/greece/lower-delta.svg

<svg style="vertical-align:-.023ex" xmlns="http://www.w3.org/2000/svg" width="1.005ex" height="1.645ex" viewBox="0 -717 444 727" xmlns:xlink="http://www.w3.org/1999/xlink"><defs><path id="a" d="M195 609q0 47 32 77t75 31q17-1 49-8t56-12 26-7q18-8 18-28 0-18-13-34t-35-16q-21 0-55 29t-60 30-39-14-14-29q0-44 99-165 67-84 67-171 0-123-61-212T205-10h-7q-71 0-115 46T36 153q0 133 115 229 40 31 101 52 0 1-7 15t-15 32-16 40-13 45-6 43Zm-83-479q0-47 24-75t68-28q29 0 52 24t35 60 18 67 7 54q0 35-7 66t-14 46-26 56l-10-4q-44-15-76-54t-46-86-19-77-6-49Z"/></defs><g stroke="currentColor" fill="currentColor" stroke-width="0"><use data-c="1D6FF" xlink:href="#a" transform="scale(1 -1)"/></g></svg>

<svg style="vertical-align: -0.023ex" xmlns="http://www.w3.org/2000/svg" width="1.005ex" height="1.645ex" role="img" focusable="false" viewBox="0 -717 444 727" xmlns:xlink="http://www.w3.org/1999/xlink"><defs><path id="MJX-90-TEX-I-1D6FF" d="M195 609Q195 656 227 686T302 717Q319 716 351 709T407 697T433 690Q451 682 451 662Q451 644 438 628T403 612Q382 612 348 641T288 671T249 657T235 628Q235 584 334 463Q401 379 401 292Q401 169 340 80T205 -10H198Q127 -10 83 36T36 153Q36 286 151 382Q191 413 252 434Q252 435 245 449T230 481T214 521T201 566T195 609ZM112 130Q112 83 136 55T204 27Q233 27 256 51T291 111T309 178T316 232Q316 267 309 298T295 344T269 400L259 396Q215 381 183 342T137 256T118 179T112 130Z"></path></defs><g stroke="currentColor" fill="currentColor" stroke-width="0" transform="scale(1,-1)"><g data-mml-node="math"><g data-mml-node="mi"><use data-c="1D6FF" xlink:href="#MJX-90-TEX-I-1D6FF"></use></g></g></g></svg>
